images/thermometer.svg

<svg width="14" height="24" viewBox="0 0 14 24" fill="none" xmlns="http://www.w3.org/2000/svg">
<path d="M8.39167 3.8021C8.39167 2.79372 8.02292 1.82664 7.36655 1.11361C6.71017 0.400577 5.81994 0 4.89168 0C3.96343 0 3.07319 0.400577 2.41682 1.11361C1.76044 1.82664 1.39169 2.79372 1.39169 3.8021V14.8682C0.494417 15.863 -0.00562103 17.202 4.76765e-05 18.5948C-0.00235835 19.4867 0.199063 20.3654 0.586248 21.1519C0.973433 21.9385 1.53428 22.6084 2.21848 23.1015C2.90268 23.5946 3.68885 23.8956 4.50648 23.9773C5.32412 24.0591 6.14765 23.9191 6.90322 23.57C7.65879 23.2208 8.32278 22.6734 8.83564 21.9769C9.3485 21.2803 9.69419 20.4563 9.84172 19.5789C9.98925 18.7014 9.934 17.7979 9.68092 16.9494C9.42784 16.1009 8.98485 15.3338 8.39167 14.7171V3.8021ZM8.51692 18.5948C8.52395 19.2544 8.37567 19.905 8.08615 20.4848C7.79663 21.0646 7.37548 21.5545 6.8627 21.9078C6.34991 22.2611 5.7625 22.4661 5.15625 22.5035C4.54999 22.5408 3.94501 22.4092 3.39874 22.1212C2.85248 21.8331 2.38306 21.3981 2.03505 20.8576C1.68704 20.317 1.472 19.6888 1.41035 19.0325C1.34869 18.3763 1.44246 17.7138 1.68276 17.108C1.92306 16.5023 2.30191 15.9732 2.78334 15.5712V3.8021C2.78334 3.19466 3.00547 2.61211 3.40086 2.18259C3.79625 1.75307 4.33251 1.51177 4.89168 1.51177C5.45085 1.51177 5.98711 1.75307 6.38251 2.18259C6.7779 2.61211 7.00002 3.19466 7.00002 3.8021V15.4276C7.46963 15.7831 7.85294 16.2569 8.11711 16.8085C8.38129 17.3601 8.51848 17.973 8.51692 18.5948Z" fill="#2D3440"/>
<path d="M5.65013 16.2288V3.85501C5.65013 3.65454 5.57682 3.46227 5.44633 3.32052C5.31583 3.17876 5.13885 3.09913 4.95431 3.09913C4.76976 3.09913 4.59278 3.17876 4.46228 3.32052C4.33179 3.46227 4.25848 3.65454 4.25848 3.85501V16.2288C3.79422 16.4071 3.40293 16.758 3.15377 17.2194C2.90461 17.6808 2.81363 18.223 2.8969 18.7503C2.98017 19.2775 3.23233 19.7558 3.60882 20.1006C3.98531 20.4453 4.46188 20.6345 4.95431 20.6345C5.44673 20.6345 5.9233 20.4453 6.29979 20.1006C6.67628 19.7558 6.92844 19.2775 7.01171 18.7503C7.09498 18.223 7.004 17.6808 6.75484 17.2194C6.50568 16.758 6.11439 16.4071 5.65013 16.2288Z" fill="#2D3440"/>
<path d="M14 2.95551H9.82506V4.46728H14V2.95551Z" fill="#2D3440"/>
<path d="M14 5.97904H9.82506V7.49081H14V5.97904Z" fill="#2D3440"/>
<path d="M14 9.00258H9.82506V10.5143H14V9.00258Z" fill="#2D3440"/>
<path d="M14 12.0261H9.82506V13.5379H14V12.0261Z" fill="#2D3440"/>
</svg>

<svg width="14" height="24" fill="none" xmlns="http://www.w3.org/2000/svg"><path d="M8.3917 3.8021c0-1.0084-.3688-1.9755-1.0252-2.6885C6.7103.4006 5.82 0 4.8918 0c-.9283 0-1.8185.4006-2.4749 1.1136-.6564.713-1.0251 1.6801-1.0251 2.6885v11.0661C.4944 15.863-.0056 17.202 0 18.5948c-.0024.8919.199 1.7706.5862 2.5571.3872.7866.948 1.4565 1.6323 1.9496.6842.4931 1.4703.7941 2.288.8758.8176.0818 1.6411-.0582 2.3967-.4073.7556-.3492 1.4196-.8966 1.9324-1.5931.5129-.6966.8586-1.5206 1.0061-2.398a5.8352 5.8352 0 0 0-.1608-2.6295c-.253-.8485-.696-1.6156-1.2892-2.2323V3.8021Zm.1252 14.7927c.007.6596-.1412 1.3102-.4307 1.89-.2896.5798-.7107 1.0697-1.2235 1.423-.5128.3533-1.1002.5583-1.7065.5957-.6062.0373-1.2112-.0943-1.7575-.3823-.5462-.2881-1.0156-.7231-1.3636-1.2636-.348-.5406-.5631-1.1688-.6247-1.8251-.0617-.6562.032-1.3187.2724-1.9245.2403-.6057.6191-1.1348 1.1005-1.5368V3.8021c0-.6074.2222-1.19.6176-1.6195.3954-.4295.9316-.6708 1.4908-.6708.5591 0 1.0954.2413 1.4908.6708S7 3.1946 7 3.802v11.6255c.4696.3555.853.8293 1.1171 1.3809.2642.5516.4014 1.1645.3998 1.7863Z" fill="#2D3440"/><path d="M5.6501 16.2288V3.855c0-.2005-.0733-.3927-.2038-.5345-.1305-.1417-.3075-.2214-.492-.2214s-.3615.0797-.492.2214c-.1305.1418-.2038.334-.2038.5345v12.3738c-.4643.1783-.8556.5292-1.1047.9906-.2492.4614-.3402 1.0036-.2569 1.5309.0833.5272.3354 1.0055.712 1.3503.3764.3447.853.5339 1.3454.5339.4924 0 .969-.1892 1.3455-.5339.3765-.3448.6286-.8231.712-1.3503.0832-.5273-.0078-1.0695-.257-1.5309-.2491-.4614-.6404-.8123-1.1047-.9906ZM14 2.9555H9.825v1.5118H14V2.9555ZM14 5.979H9.825v1.5118H14V5.979ZM14 9.0026H9.825v1.5117H14V9.0026ZM14 12.0261H9.825v1.5118H14v-1.5118Z" fill="#2D3440"/></svg>
